build/img/sprite/document.svg

<svg id="Layer_1" height="512" viewBox="0 0 24 24" width="512" xmlns="http://www.w3.org/2000/svg" data-name="Layer 1"><path d="m7 12h10v2h-10zm0 6h7v-2h-7zm15-10.414v16.414h-20v-21a3 3 0 0 1 3-3h9.414zm-7-.586h3.586l-3.586-3.586zm5 15v-13h-7v-7h-8a1 1 0 0 0 -1 1v19z"/></svg>

<svg height="512" viewBox="0 0 24 24" width="512" xmlns="http://www.w3.org/2000/svg" data-name="Layer 1"><path d="M7 12h10v2H7zm0 6h7v-2H7zM22 7.586V24H2V3a3 3 0 0 1 3-3h9.414zM15 7h3.586L15 3.414zm5 15V9h-7V2H5a1 1 0 0 0-1 1v19z"/></svg>
